X: 1066
T: A Horn-pipe.
%R: triple hornpipe
B: Henry Playford "Apollo's Banquet", London 1687 (5th Edition)
F: https://archive.org/details/apollosbanquetco01rugg
Z: 2017 John Chambers <jc:trillian.mit.edu>
M: 3/2
L: 1/8
K: D
% - - - - - - - - - -
|:\
D2 F4 A2 (Bc)d2 | B6 e2c2A2 |\
(de)f2 (Bc)d2 e2A2 | d6 (F2E2D2) ::\
(de)f2 (fg)a2 g2f2 | b4ba (gf)(gf)(ed) |
(ed)(cB)(cB) a2a3^g | a6 c2d2e2 |\
f4 d4 B4 | G2g4 f2e2(de) |\
c2(Bc) A2a2 d3c | d6 (F2E2D2) |]
% - - - - - - - - - -

%%sep 1 1 500
%%sep 1 1 500

